X: 1
T: String Quartet in G major opus 9 no 3 mvt 3
C: Franz Joseph Haydn
%%abc-version 2.0
%%abcx-abcm2ps-target-version 5.9.1 (29 Sep 2008)
%%abc-creator hum2abc beta
%%abcx-conversion-date 2021/02/14 14:38:15
%%abc-copyright Copyright (c) 1994, 2000 Center for Computer Assisted Research in the Humanities
%%abc-edited-by Frances Bennion
%%abc-edited-by Frances Bennion
%%abcx-initial-encoding-date 1997/04/15
%%gracespace 0 6 6
%%humdrum-veritas 4018608318
%%humdrum-veritas-data 3226401025
%%linebreak <none>
%%barnumbers 0
L: 1/16
M: 3/4
N: Derived from op09n3-03.krn
Q: "Largo" 1/4=40
%%staves [1 2 3 4]
V: 1 clef=bass
V: 2 clef=alto
V: 3
V: 4
K: C
[V:1]C,4 G,2z4 F,2 |
[V:2]G,4- G,2z4 G,2 |
[V:3]C3D/E/ D2z4 G,2 |
[V:4]E3F/G/ F2z4 DC/B,/ |
[V:1]E,4 B,,2z6 |
[V:2]G,2C2 B,2z6 |
[V:3]G,4- G,2z6 |
[V:4]C3D/E/ D2z6 |
[V:1]C,4 D,4 E,4 |
[V:2]C4 D4 E2E,2 |
[V:3]z2C4 B,4 C2 |
[V:4]E3F/G/ F3G/A/ G2c2 |
[V:1]F,4 G,4 G,,4 |
[V:2]F,4 G,4 G,4 |
[V:3]C8 D2CB, |
[V:4]A2GF E4 F2ED |
[V:1]C,4 >F,4 E,2D,2 |
[V:2]C,4 >A,4 G,2F,2 |
[V:3]B,4 C2C4 B,2 |
[V:4]D4 E2z6 |
[V:1]C,4 G,2z4 F,2 |
[V:2]E,4 G,2z4 G,2 |
[V:3]C3D/E/ D2z4 G,2 |
[V:4]E3F/G/ F2z4 DC/B,/ |
[V:1]E,4 B,,2z6 |
[V:2]G,2C2 B,2z6 |
[V:3]G,4- G,2z6 |
[V:4]C3D/E/ D2z6 |
[V:1]C2C2 C2C2 C2C2 |
[V:2]C2E2 E2E2 E2E2 |
[V:3]G2G2 G2G2 G2G2 |
[V:4]e12 |
[V:1]B,2B,2 B,2B,2 B,2B,2 |
[V:2]D2D2 D2D2 D2D2 |
[V:3]^G2G2 G2G2 G2G2 |
[V:4]f6 ed cBA^G |
[V:1](3:2:2C8- CA,2|
[V:2](3:2:2E8- EC2|
[V:3](3:2:2A8- Ae2|
[V:4]A2c2 e2^g2 a2c'2 |
[V:1]D4 D,2z6 |
[V:2]A,4- A,2z6 |
[V:3]c4- c2z6 |
[V:4]g3a/g/ ^f2f2 g2a2 |
[V:1]z4 >C4 D2_E2 |
[V:2]z4 >c4 d2_e2 |
[V:3]z4 >c4 d2_e2 |
[V:4]a4 c2c2 d2_e2 |
[V:1]_E4 ^F,2G,2 A,2C2 |
[V:2]_e4 ^F2G2 A2c2 |
[V:3]_e4 ^F2G2 A2c2 |
[V:4]_e4 ^F2G2 A2c2 |
[V:1]_E,4 D,2z6 |
[V:2]_E4 D2z6 |
[V:3]_E4 D2z6 |
[V:4]_E4 D2z3 c/B/d/c/_e/c/ |
[V:1]_E,4 D,2z6 |
[V:2]_E4 D2z6 |
[V:3]_E4 D2z6 |
[V:4]_E4 D2z6 |
[V:1]G,2z2 G,2z2 G,2z2 |
[V:2]B,2z2 B,2z2 B,2z2 |
[V:3](3DdB(3GDd (3BGD(3dBG (3DdB(3GDd |
[V:4]d12- |
[V:1]^F,2z2 F,2z2 F,2z2 |
[V:2]A,2z2 A,2z2 A,2z2 |
[V:3](3DcA(3^FDc (3AFD(3cAF (3DcA(3FDc |
[V:4]d12- |
[V:1]G,2z2 G,2z2 G,2z2 |
[V:2]B,2z2 B,2z2 B,2z2 |
[V:3]B4 d8- |
[V:4](3dd'b(3gdd' (3bgd(3d'bg (3dd'b(3gdd' |
[V:1]^F,2z2 F,2z2 C2z2 |
[V:2]A,2z2 A,2z2 A,2z2 |
[V:3]d12- |
[V:4](3dc'a(3^fdc' (3afd(3c'af (3dc'a(3fdc' |
[V:1]B,2z2 B,2z2 B,2z2 |
[V:2]G,2z2 G,2z2 G2z2 |
[V:3]d12- |
[V:4](3dd'b(3gdd' (3bgd(3d'bg (3dd'b(3gdd' |
[V:1]C4 A,8 |
[V:2]E12 |
[V:3]d4 c8- |
[V:4](3ed'b(3ged' (3ee'c'(3aec' (3cc'a(3ecc' |
[V:1]B,4 G,8 |
[V:2]D12 |
[V:3]c4 B8- |
[V:4](3dc'a(3^fdc' (3dd'b(3gdb (3Bbg(3dBb |
[V:1]A,4 ^F,8 |
[V:2]C8 D4 |
[V:3]B4 A8 |
[V:4](3cbg(3ecb (3cc'a(3^fca (3Aaf(3dca |
[V:1]G,4 z8 |
[V:2]D4 z8 |
[V:3]G4 z8 |
[V:4](3B^fg(3b^de (3gBc(3e^GA (3cE^F(3=G^CD |
[V:1](3zB,,C,(3E,B,,C, (3E,^G,,A,,(3C,E,A, (3CB,A,(3G,^F,E, |
[V:2](3zB,C(3EB,C (3E^G,A,(3CEA (3cBA(3G^FE |
[V:3](3zB,C(3EB,C (3E^G,A,(3CEA (3cBA(3G^FE |
[V:4](3EB,C(3EB,C (3E^G,A,(3CEA (3cBA(3G^FE |
[V:1](3D,^F,A,(3CA,F, (3D,F,A,(3CA,F, (3D,G,B,(3DB,G, |
[V:2]D2z2 c2z2 B2z2 |
[V:3]D12- |
[V:4]D2z2 ^f2z2 g2z2 |
[V:1](3D,^F,A,(3CA,F, (3D,F,A,(3CA,F, (3D,G,B,(3DB,G, |
[V:2]D2z2 ^F2z2 G2z2 |
[V:3]D12 |
[V:4]D2z2 c'2z2 b2z2 |
[V:1](3E,G,_B,(3^CB,G, E,2z6 |
[V:2](3EG_B(3^cBG E2z6 |
[V:3](3EG_B(3^cBG E2z6 |
[V:4](3EG_B(3^cBG (3EGB(3ceg (3_bge(3cBG |
[V:1](3D,^F,A,(3CA,F, D,2z6 |
[V:2](3D^FA(3cAF D2z6 |
[V:3](3D^FA(3cAF D2z6 |
[V:4](3D^FA(3cAF (3DFA(3c^fa c'2z2 |
[V:1]G,,4 D,2z4 C2 |
[V:2]D4- D2z4 D2 |
[V:3]G3A/B/ A2z4 D2 |
[V:4]B3c/d/ c2z4 AG/^F/ |
[V:1]B,4 ^F,2z6 |
[V:2]D2G2 ^F2z6 |
[V:3]D4- D2z6 |
[V:4]G3A/B/ A2z6 |
[V:1]G,,4 z8 |
[V:2]z8 (3zED(3EDC |
[V:3](3zed(3edc (3BcB(3cBA G4 |
[V:4](3zg^f(3gfe (3ded(3edc (3BcB(3cBA |
[V:1](3zG,^F,(3G,F,E, (3D,E,D,(3E,D,C, (3B,,A,,G,,(3G,E,^C, |
[V:2]B,4 (3zG^F(3GFE (3DCB,(3GE^C |
[V:3]G4 B4 g4 |
[V:4]B4 g4 b4 |
[V:1]D,4 z8 |
[V:2]D4 z8 |
[V:3]g4 z8 |
[V:4]b4 a8 |
[V:1]G,2z2 G,2z2 G,2z2 |
[V:2]B,2z2 B,2z2 B,2z2 |
[V:3](3DdB(3GDd (3BGD(3dBG (3DdB(3GDd |
[V:4]g12 |
[V:1]G,2z2 G,2z2 G,2z2 |
[V:2]_B,2z2 B,2z2 B,2z2 |
[V:3](3Dd_B(3GDd (3BGD(3dBG (3DdB(3GDd |
[V:4]_b8 d4 |
[V:1]G,2z2 G,2z2 G,2z2 |
[V:2]_B,2z2 B,2z2 B,2z2 |
[V:3](3E^c_B(3GEc (3BGE(3cBG (3EcB(3GEc |
[V:4]^c4 _b6 c2 |
[V:1]F,2z2 F,2z2 F,2z2 |
[V:2]A,2z2 A,2z2 A,2z2 |
[V:3](3DdA(3FDd (3AFD(3dAF (3DdA(3FDd |
[V:4]d4 >d4 d2d2 |
[V:1]F,2z2 F,2z2 F,2z2 |
[V:2]A,2z2 A,2z2 A,2z2 |
[V:3](3A_ec(3AFC (3A,CF(3Ace (3FAB(3cBA |
[V:4]_e8 ^d4 |
[V:1]E,2z2 E,,2z6 |
[V:2]B,2z2 E2z6 |
[V:3](3^GeB(3GEe E2z6 |
[V:4]e4 E2z6 |
[V:1]C,4 G,2z4 F,2 |
[V:2]G,4- G,2z4 G,2 |
[V:3]C3D/E/ D2z4 G,2 |
[V:4]E3F/G/ F2z4 DC/B,/ |
[V:1]E,4 B,,2z6 |
[V:2]G,2C2 B,2z6 |
[V:3]G,4- G,2z6 |
[V:4]C3D/E/ D2z6 |
[V:1]C,4 D,4 E,4 |
[V:2]C4 D4 E2E,2 |
[V:3]z2C4 B,2 C4 |
[V:4]E3F/G/ F3G/A/ GcB_B |
[V:1]F,4 G,4 G,,4 |
[V:2]F,4 G,4 G,4 |
[V:3]C8 D2CB, |
[V:4]A_AGF E4 F2ED |
[V:1]C,4 >F,4 E,2D,2 |
[V:2]C,4 >A,4 G,2F,2 |
[V:3]B,4 C2C4 B,2 |
[V:4]D4 E2z6 |
[V:1]C,4 A,,2z4 A,2 |
[V:2]E,4 A,2z4 A,2 |
[V:3]G,4 C2z4 C2 |
[V:4]E3^F/G/ F2z2 >c2B/A/G/F/ |
[V:1]B,4- B,2z6 |
[V:2]B,4- B,2z6 |
[V:3]D4- D2z6 |
[V:4]^F3G/A/ G2d2 e2f2 |
[V:1]z4 >B,4 C2D2 |
[V:2]z4 >B4 c2d2 |
[V:3]z4 >B4 c2d2 |
[V:4]f4 B2B2 c2d2 |
[V:1]D4 F,2F,2 G,2_A,2 |
[V:2]d4 F2F2 G2_A2 |
[V:3]d4 F2F2 G2_A2 |
[V:4]d4 F2F2 G2_A2 |
[V:1]_A,4 B,,2C,2 D,2F,2 |
[V:2]_A4 B,2C2 D2F2 |
[V:3]_A4 B,2C2 D2F2 |
[V:4]_A4 B,2C2 D2F2 |
[V:1]_A,,4 G,,2z6 |
[V:2]_A,4 G,2z6 |
[V:3]_A,4 G,2z6 |
[V:4]_A,4 G,2z3 E/F/G/F/_A/F/ |
[V:1]_A,,4 G,,2z6 |
[V:2]_A,4 G,2z6 |
[V:3]_A,4 G,2z6 |
[V:4]_A,4 G,2z6 |
[V:1]C,2z2 C,2z2 C,2z2 |
[V:2]E2z2 E2z2 E2z2 |
[V:3]G12- |
[V:4](3Gge(3cGg (3ecG(3gec (3Gge(3cGg |
[V:1]B,,2z2 B,,2z2 F,2z2 |
[V:2]D2z2 D2z2 D2z2 |
[V:3]G12- |
[V:4](3Gfd(3BGf (3dBG(3fdB (3Gfd(3BGf |
[V:1]E,2z2 E,2z2 E,2z2 |
[V:2]C2z2 C2z2 C2z2 |
[V:3]G12- |
[V:4](3Gge(3cGg (3ecG(3gec (3Gge(3cGg |
[V:1]F,4 D,8 |
[V:2]A12 |
[V:3]G4 F8- |
[V:4](3Age(3cAg (3Aaf(3dAf (3Ffd(3AFf |
[V:1]E,4 C,8 |
[V:2]G12 |
[V:3]F4 E8- |
[V:4](3Gfd(3BGf (3Gge(3cGe (3Eec(3GEe |
[V:1]D,4 B,,8 |
[V:2]F8 G4 |
[V:3]E4 D8 |
[V:4](3Fec(3AFe (3Ffd(3BFd (3DdB(3GFd |
[V:1]C,4 z8 |
[V:2]G4 z8 |
[V:3]C4 z8 |
[V:4](3EBc(3eBc (3e^GA(3cGA (3cEF(3AEF |
[V:1](3z^C,D,(3F,C,D, (3F,C,D,(3F,C,D, (3F,E,D,(3=C,B,,A,, |
[V:2](3z^CD(3FCD (3FCD(3FCD (3FED(3=CB,A, |
[V:3](3z^CD(3FCD (3FCD(3FCD (3FED(3=CB,A, |
[V:4](3A^CD(3FCD (3FCD(3FCD (3FED(3=CB,A, |
[V:1](3G,,B,,D,(3F,D,B,, (3G,,B,,D,(3F,D,B,, (3G,,C,E,(3G,E,C, |
[V:2]G,12- |
[V:3]G,2z2 F2z2 E2z2 |
[V:4]G,2z2 B2z2 c2z2 |
[V:1](3G,,B,,D,(3F,D,B,, (3G,,B,,D,(3F,D,B,, (3G,,C,E,(3G,E,C, |
[V:2]G,12 |
[V:3]G,2z2 B2z2 c2z2 |
[V:4]G,2z2 f2z2 e2z2 |
[V:1](3A,,C,_E,(3^F,E,C, A,,2z6 |
[V:2](3A,C_E(3^FEC A,2z6 |
[V:3](3A,C_E(3^FEC A,2z6 |
[V:4](3A,C_E(3^FEC (3A,CE(3FAc (3_ecA(3FEC |
[V:1](3G,,B,,D,(3F,D,B,, G,,2z6 |
[V:2](3G,B,D(3FDB, G,2z6 |
[V:3](3G,B,D(3FDB, G,2z6 |
[V:4](3G,B,D(3FDB, (3G,B,D(3FBd f2z2 |
[V:1]C,4 G,2z4 F,2 |
[V:2]G,4- G,2z4 G,2 |
[V:3]C3D/E/ D2z4 G,2 |
[V:4]E3F/G/ F2z4 DC/B,/ |
[V:1]E,4 B,,2z6 |
[V:2]G,2C2 B,2z6 |
[V:3]G,4- G,2z6 |
[V:4]C3D/E/ D2z6 |
[V:1]C,,4 z8 |
[V:2]z8 (3zAG(3AGF |
[V:3](3zag(3agf (3efe(3fed c4 |
[V:4](3zc'b(3c'ba (3gag(3agf (3efe(3fed |
[V:1](3zCB,(3CB,A, (3G,A,G,(3A,G,F, (3E,C,B,,(3A,,G,,^F,, |
[V:2]E4 (3zcB(3cBA (3GCB,(3A,G,^F, |
[V:3]c8 e4 |
[V:4]c4 e4 c'4 |
[V:1]G,,4 z8 |
[V:2]G,4 z8 |
[V:3]e4 z8 |
[V:4]c'4 d8 |
[V:1]C,2z2 C,2z2 C,2z2 |
[V:2]E2z2 E2z2 E2z2 |
[V:3](3CcG(3ECc (3GEC(3cGE (3CcG(3ECc |
[V:4]c8 _B4 |
[V:1]C,2z2 C,2z2 C,2z2 |
[V:2]F2z2 F2z2 F2z2 |
[V:3](3CcA(3FCc (3AFC(3cAF (3CAG(3FED |
[V:4]A8 B,4 |
[V:1](3C,,C,G,,(3E,,C,,C, (3G,,E,,C,,(3C,G,,E,, (3C,,C,G,,(3E,,C,,C, |
[V:2]E4 G,8 |
[V:3]E4 E2>F2 E3F |
[V:4]C4 C2>D2 C3D |
[V:1]C,,12 |]
[V:2]G,12 |]
[V:3]E12 |]
[V:4]C12 |]

